X:1
T:Title
%%score ( 1 2 ) 3
L:1/8
Q:1/4=90
M:12/8
K:C
V:1 treble nm="Violin, Soprano"
V:2 treble 
V:3 bass nm="Violin, Bass"
V:1
 z6 z2 C CEG | c6- c2 z z3 | e6- e2 z z3 | d6- d2 z z3 | c6- c2 z z3 | c6- c2 z z3 | e6- e2 z z3 | %7
w: 1.~The~ vic t'ry~ is~|mine,~ *|mine;~ *|Lord,~ *|word;~ *|foe,~ *|go;~ *|
 d6- d2 z z3 | c6- c3 z3 |[M:4/4][Q:1/4=80] [FA]4- [FA][Ac][GB][FA] | [EG]6 z2 | %11
w: Him,~ *|cord.~ *|||
 [DF]4- [DF][FA][EG][DF] | [CE]6 z2 | [Ge]4- [Ge][Ec][Fd][Ec] | [FA]4- [FA][Ac][GB][FA] | %15
w: ||||
 [EG]3 [Ge] [Fd]2 [FB]2 | [Ec]4[Q:1/4=80] z4[Q:1/4=12] |] %17
w: ||
V:2
 x12 | z2 E EEE E2 C CEG | z2 G GGG G2 e edc | z2 F FFF F2 d dcB | z2 E EEE E2 C CEG | %5
w: |* * * * * * * t'ry~ is~|* * * * * * * sus~ my~|* * * * * * * ing~ His~|* * * * * * * quers~ the~|
 z2 E EEE E2 C CEG | z2 G GGG G2 e edc | z2 F FFF F2 d dcB | z2 E FFF E3 z3 |[M:4/4] x8 | x8 | x8 | %12
w: * * * * * * * er~ I~|* * * * * * * ing~ with~|* * * * * * * ly~ ac|||||
 x8 | x8 | x8 | x8 | x8 |] %17
w: |||||
V:3
 z12 | z2 [C,G,] [C,G,][C,G,][C,G,] .[C,G,]3 z3 | z2 [C,C] [C,C][C,C][C,C] .[C,C]3 z3 | %3
 z2 [G,B,] [G,B,][G,B,][G,B,] .[G,B,]3 z3 | z2 [C,G,] [C,G,][C,G,][C,G,] .[C,G,]3 z3 | %5
 z2 [C,G,] [C,G,][C,G,][C,G,] .[C,G,]3 z3 | z2 [C,C] [C,C][C,C][C,C] .[C,C]3 z3 | %7
 z2 [G,B,] [G,B,][G,B,][G,B,] .[G,B,]3 z3 | z2 [C,G,] [C,A,][C,A,][C,A,] [C,G,]3 z3 | %9
[M:4/4] [F,C]2 [F,C]2 [F,C]2 z2 | [C,C]2 [C,C]2 [C,C]2 z2 | [G,,B,]2 [G,,B,]2 [G,,B,]2 z2 | %12
 [C,G,]2 [C,G,]2 [C,G,]2 z2 | [C,C]2 [C,C]2 [C,C]2 z2 | [F,C]2 [F,C]2 [F,C]2 [F,C]2 | %15
 [G,C]3 [G,C] [G,B,]2 G,2 | [C,G,]4 z4 |] %17

